X:1
T:Quanto sia lietto il giorno
T:Girolamo Scotto
T:Source : Madrigali a tre voci---Venetia---G.Scotto---1541. Editor André Vierendeels (16/07/16). 
T:Notes : Original clefs : C1, C3, C4 Editorial accidentals above the staff Square bracket indicates ligature Original note values have been halved "Primi toni"  
T:Quanto sia lietto il giorno
T:©
T:©
T:©
T:©
T:©
C:Girolamo Scotto
Z:©
%%score [ 1 [ 2 3 ] ]
L:1/8
Q:1/4=124
M:2/2
K:F
V:1 treble nm="Soprano" snm="S"
V:2 treble-8 nm="Tenor 1" snm="T 1"
V:3 treble-8 nm="Tenor 2" snm="T 2"
V:1
 z8 | D4 F3 G | A2 G2 A3 B | c4 z2 G2 | B2 A2 B3 c | d2 d2 z4 | z2 d2 d2 d2 | c2 A2 B4 | A3 B c4 | %9
w: |Quan- to sia|liet- to'il gior- *|no, quan-|to sia liet- to'il|gior- no,|nel qual le|co- se'an- ti-||
 d6 cB | A2 A2 B2 B2 | c2 c2 d4- | d2 c2 B2 A2- |"^#" A2 G4 F2 | G4 z4 | z4 A4 | B2 A2 B3 c | %17
w: |que, son hor da|vuoi di- mo-|* str'e ce- le-|bra- * *|te,|si|ve- de per- che'in-|
 d2 d2 z4 | z2 d2 d2 d2 | c2 A2 B4 | A2 A2 B2 B2 | c2 c2 d4- | d2 c2 B2 A2- |"^#" A2 G4 F2 | %24
w: tor- no,|tut- te le|gen- te'a- mi-|che, si so- no'in|que- sta par-|* te ra- du-|* na- *|
 G4 z2 A2 | A2 A2 A2 A2 | G4 F4 | z2 A2 A2 A2 | B2 B2 c4 | G3 A B2 A2 | B2 A4 G2 | A2 A2 A2 A2 | %32
w: te, noi|che la no- stra'e-|ta- de,|ne bo- schi'e|ne le sel-|ve _ _ con|su- mia- *|mo, ve- nu- ti'an-|
 A2 A4 G2 | A8 | z2 A2 c4 | A4 z2 B2 | B2 A3 G/F/ G2 | A8 | z2 d2 c2 d2 | B2 c2 dcBA | %40
w: chor qui sia-|mo,|io nim-|pha'e voi|pa- sto- * * *|ri,|et giam can-|tan- do'in- sie- * * *|
 G2 cB AG F2 | BAGF EF G2- |"^#" G2 F2 G4 | z4 z2 A2 | G2 A2 F2 G2 | AGFE D2 GF | ED C2 F3 G | %47
w: me'i no _ _ _ _|_ _ _ _ _ _ stri'a-|* mo- ri,|et|giam can- tan- do'in-|sie- * * * me i _|_ _ _ no- *|
 A2 G4 F2 | G8 |] %49
w: stri'a- mo- *|ri.|
V:2
 G4 B2 A2 | B3 c d4 | c6 f2 | e2 f2 d4- | d2 d2 d3 e |"^#" fd g4 f2 | g6 d2 | f2 f2 g2 g2 | %8
w: Quan- to sia|liet- to'il gior-|no, quan-|to sia liet-|* to'il _ _|_ _ gior- *|no, ne|qual co- se'an- ti-|
 f4 e2 f2 | f2 f2 d3 e | f4 d4 | z2 f2 f2 f2 | d2 e2 f2 f2 | c2 B2 A4 | G2 d2 d2 c2 | d3 e f2 f2 | %16
w: que, ne qual|co- se'an- ti- *|* que,|son hor da|vuoi di- mo- str'e|ce- le- bra-|te, si ve- de|per- ch'in- tor- no,|
 z2 f2 g2 d2 | f2 f2 e2 g2- | g2 f2 g3 f | e2 f3 e/d/ e2 | f3 e d4 | z2 f2 f2 f2 | d2 e2 f2 f2 | %23
w: tut- te le|gen- te'an- ti- *|||* * che,|si so- no'in|que- sta par- te|
 c2 B2 A4 | =B4 z2 c2 | c2 c2 c2 f2- | f2 e2 fedc | d2 f2 f2 f2 | d2 d2 f4 | e4 d4- | d2 d2 B4 | %31
w: ra- du- na-|te, noi|che la no- stra'e-|* ta- de, _ _ _|_ ne bo- schi'e|ne le sel-|ve con-|* su- mia-|
 A2 f2 f2 f2 | e2 c2 d4 | e2 c2 f4 | e4 z2 f2 | f2 f2 e2 d2- | d2 c2 d4 | z2 e2 f2 f2 | %38
w: mo, ve- nu- ti'an-|chor qui sia-|mo, io nim-|pha e|voi pa- sto- *|* * ri,|et giam can-|
 e2 d2 e2 f2 | g2 e2 d4 | e4 f2 d2 | d2 d2 c2 B2 | A4 G2 d2 | c2 d2 B2 c2 | c2 c2 d2 B2 | A4 B4 | %46
w: tando'in- sie- 'i no-||* stri, in-|sie- me'i no- stri'a-|mo- ri, et|giam can- tan- do'in-|sie- me'i no- stri'a-|mo- ri,|
 c2 A2 A2 d2- | dc B2 A4 | =B8 |] %49
w: i no- stri'a- mo-||ri.|
V:3
 z8 | z4 D4 | F2 E2 F3 G | A4 B3 A | G2 F2 G2 B2- | B2 AG A4 | G8 | z4 z2 G2 | d2 d2 c2 A2 | %9
w: |Qian-|to sia liet- to'il|gior- no, quan-|to sia liet- to'il|_ _ _ gior-|no,|ne|qual co- se'an- ti-|
 B6 AG | F2 D2 G2 G2 | A2 A2 B4 | B2 A2 D3 E | F2 G2 D4 | z2 G2 B2 A2 | B3 c d4 | d4 z2 B2 | %17
w: que, _ _|_ son hor da|vuoi di mo-|str'e ce- le- *|* bra- te,|si ve- de|per- ch'in- tor-|no, tut-|
 B2 B2 c2 c2 | d4 G2 G2 | A2 F2 G4 | F2 D2 G2 G2 | A2 A2 B4- | B2 A2 D3 E | F2 G2 D4 | G4 z2 F2 | %25
w: te le gen- te'an-|ti- che, le|gen- te'an- ti-|che, si so- no'in|que- sta par-|* te ra- du-|na- * *|te, noi|
 F2 F2 F2 F2 | c4 F4 | z2 D2 D2 D2 | G2 G2 FGAB | c2 G4 F2 | G2 D2 G4 | z2 D2 d2 d2 | c2 A2 B4 | %33
w: che la no- stra'e-|ta- de,|ne bo- schi'e|ne le sel- * * *|ve con- su-|mia- * mo,|ve- nu- ti'an-|chor qui sia-|
 A4 D4 | A4 A2 A2 | d4 c2 G2 | A2 A2 B4 | A4 D4 | z8 | z2 A2 B2 G2 | c2 A2 d2 d2 | G2 G2 A2 G2 | %42
w: mo, io|nim- pha'e pa-|sto- * *||* ri,||et giam can-|tan- do'in- sie- me'i|no- stri'a- mo- *|
 D4 G4 |"^#" z2 D2 G2 F2 | E2 F2 D2 E2 | F2 D2 G4 | A4 D3 E | F2 G2 D4 | G8 |] %49
w: * ri,|et giam can-|tan- do'in- sie- me'i|no- stri'a- mo-|* ri, i|no- stri'a- mo-|ri.|

